X: 2 % start of header
T:Iridis Alpha Title Theme
T:16 of 100,000,000,000,000
C: (Sid.)
O: Jeff Minter
R:Procedurally Generated
L: 1/8
K: D % scale: C major
V:1 name="Voice 1"
D16    |     |     |     | E16    |     |     |     | ^D16    |     |     |     | E16    |     |     |     | E,16    |     |     |     | ^F,16    |     |     |     | F,16    |     |     |     | ^F,16    |     |     |     | ^F,16    |     |     |     | ^G,16    |     |     |     | G,16    |     |     |     | ^G,16    |     |     |     | F,16    |     |     |     | G,16    |     |     |     | ^F,16    |     |     |     | G,16    |     |     |     | :|
V:2 name="Voice 2"
E4    | ^F4    | F4    | ^F4    | ^F4    | ^G4    | G4    | ^G4    | F4    | G4    | ^F4    | G4    | ^F4    | ^G4    | G4    | ^G4    | ^F,4    | ^G,4    | G,4    | ^G,4    | ^G,4    | ^A,4    | A,4    | ^A,4    | G,4    | A,4    | ^G,4    | A,4    | ^G,4    | ^A,4    | A,4    | ^A,4    | ^G,4    | ^A,4    | A,4    | ^A,4    | ^A,4    | C4    | B,4    | C4    | A,4    | B,4    | ^A,4    | B,4    | ^A,4    | C4    | B,4    | C4    | G,4    | A,4    | ^G,4    | A,4    | A,4    | B,4    | ^A,4    | B,4    | ^G,4    | ^A,4    | A,4    | ^A,4    | A,4    | B,4    | ^A,4    | B,4    | :|
V:3 name="Voice 3"
^F1^G1G1^G1|^G1^A1A1^A1|G1A1^G1A1|^G1^A1A1^A1|^G1^A1A1^A1|^A1c1B1c1|A1B1^A1B1|^A1c1B1c1|G1A1^G1A1|A1B1^A1B1|^G1^A1A1^A1|A1B1^A1B1|^G1^A1A1^A1|^A1c1B1c1|A1B1^A1B1|^A1c1B1c1|^G,1^A,1A,1^A,1|^A,1C1B,1C1|A,1B,1^A,1B,1|^A,1C1B,1C1|^A,1C1B,1C1|C1D1^C1D1|B,1^C1C1^C1|C1D1^C1D1|A,1B,1^A,1B,1|B,1^C1C1^C1|^A,1C1B,1C1|B,1^C1C1^C1|^A,1C1B,1C1|C1D1^C1D1|B,1^C1C1^C1|C1D1^C1D1|^A,1C1B,1C1|C1D1^C1D1|B,1^C1C1^C1|C1D1^C1D1|C1D1^C1D1|D1E1^D1E1|^C1^D1D1^D1|D1E1^D1E1|B,1^C1C1^C1|^C1^D1D1^D1|C1D1^C1D1|^C1^D1D1^D1|C1D1^C1D1|D1E1^D1E1|^C1^D1D1^D1|D1E1^D1E1|A,1B,1^A,1B,1|B,1^C1C1^C1|^A,1C1B,1C1|B,1^C1C1^C1|B,1^C1C1^C1|^C1^D1D1^D1|C1D1^C1D1|^C1^D1D1^D1|^A,1C1B,1C1|C1D1^C1D1|B,1^C1C1^C1|C1D1^C1D1|B,1^C1C1^C1|^C1^D1D1^D1|C1D1^C1D1|^C1^D1D1^D1|:|
